svg/NEPAnode-EnergyInfrastructure/Tidal_Icon.svg

<?xml version="1.0" encoding="UTF-8" standalone="no"?>
<!-- Created with Inkscape (http://www.inkscape.org/) -->

<svg
   xmlns:dc="http://purl.org/dc/elements/1.1/"
   xmlns:cc="http://creativecommons.org/ns#"
   xmlns:rdf="http://www.w3.org/1999/02/22-rdf-syntax-ns#"
   xmlns:svg="http://www.w3.org/2000/svg"
   xmlns="http://www.w3.org/2000/svg"
   xmlns:xlink="http://www.w3.org/1999/xlink"
   xmlns:sodipodi="http://sodipodi.sourceforge.net/DTD/sodipodi-0.dtd"
   xmlns:inkscape="http://www.inkscape.org/namespaces/inkscape"
   version="1.1"
   width="250"
   height="250"
   viewBox="0 0 0.34722222 0.34722222"
   id="svg2"
   inkscape:version="0.48.4 r9939"
   sodipodi:docname="Tidal_Icon.svg">
  <sodipodi:namedview
     pagecolor="#ffffff"
     bordercolor="#666666"
     borderopacity="1"
     objecttolerance="10"
     gridtolerance="10"
     guidetolerance="10"
     inkscape:pageopacity="0"
     inkscape:pageshadow="2"
     inkscape:window-width="1360"
     inkscape:window-height="744"
     id="namedview17"
     showgrid="false"
     inkscape:zoom="2.232"
     inkscape:cx="125"
     inkscape:cy="37.696918"
     inkscape:window-x="0"
     inkscape:window-y="24"
     inkscape:window-maximized="1"
     inkscape:current-layer="svg2" />
  <title
     id="title4">SVG drawing</title>
  <desc
     id="desc6">This was produced by version 4.1 of GNU libplot, a free library for exporting 2-D vector graphics.</desc>
  <metadata
     id="metadata3395">
    <rdf:RDF>
      <cc:Work
         rdf:about="">
        <dc:format>image/svg+xml</dc:format>
        <dc:type
           rdf:resource="http://purl.org/dc/dcmitype/StillImage" />
        <dc:title>SVG drawing</dc:title>
      </cc:Work>
    </rdf:RDF>
  </metadata>
  <defs
     id="defs3393">
    <linearGradient
       id="linearGradient8138">
      <stop
         id="stop8140"
         style="stop-color:#ffffff;stop-opacity:0"
         offset="0" />
      <stop
         id="stop8142"
         style="stop-color:#000000;stop-opacity:0"
         offset="1" />
    </linearGradient>
    <radialGradient
       cx="0.17569096"
       cy="0.17470571"
       r="0.16916668"
       fx="0.17569096"
       fy="0.17470571"
       id="radialGradient8144"
       xlink:href="#linearGradient8138"
       gradientUnits="userSpaceOnUse" />
  </defs>
  <text
     x="-0.032071669"
     y="0.3455472"
     id="text7140"
     xml:space="preserve"
     style="font-size:0.0555556px;font-style:normal;font-variant:normal;font-weight:normal;font-stretch:normal;line-height:125%;letter-spacing:0px;word-spacing:0px;fill:#000000;fill-opacity:1;stroke:none;font-family:Energy Infrastructure;-inkscape-font-specification:Energy Infrastructure"><tspan
       x="-0.032071669"
       y="0.3455472"
       id="tspan7142"
       style="font-size:0.59036261px" /></text>
  <path
     d="M 329.28829,363.4657 A 105.41456,102.94666 0 1 1 118.45918,363.4657 105.41456,102.94666 0 1 1 329.28829,363.4657 z"
     transform="matrix(0.00161659,0,0,0.00168318,-0.18770819,-0.44043665)"
     id="path3037"
     style="opacity:0;fill:#000000;fill-opacity:1;fill-rule:nonzero;stroke:#000000;stroke-opacity:1" />
  <path
     d="M 296.14793,366.28613 A 58.877029,87.434151 0 1 1 178.39388,366.28613 58.877029,87.434151 0 1 1 296.14793,366.28613 z"
     transform="matrix(0.00161659,0,0,0.00168318,-0.18770819,-0.44043665)"
     id="path3807"
     style="opacity:0;fill:#000000;fill-opacity:1;fill-rule:nonzero;stroke:#000000;stroke-width:2;stroke-linejoin:round;stroke-miterlimit:4;stroke-opacity:1;stroke-dasharray:none" />
  <g
     style="font-size:0.0555556px;font-style:normal;font-variant:normal;font-weight:normal;font-stretch:normal;line-height:125%;letter-spacing:0px;word-spacing:0px;fill:#000000;fill-opacity:1;fill-rule:evenodd;stroke:none;font-family:Energy Infrastructure;-inkscape-font-specification:Energy Infrastructure"
     id="text8169">
    <path
       d="M 0.13084926,0.11680582 C 0.13512687,0.09230608 0.13726576,0.07286165 0.13726592,0.05847249 0.13726576,0.0440839 0.13648798,0.03319502 0.13493259,0.02580582 0.13337687,0.01802837 0.13182132,0.01316726 0.13026592,0.01122248 0.1290991,0.00888949 0.12929354,0.00772282 0.13084926,0.00772248 0.1339602,0.00772282 0.1409602,0.01258393 0.15184926,0.02230582 0.16273795,0.03163947 0.17498794,0.04427834 0.18859926,0.06022249 0.20221014,0.07577832 0.21601568,0.09366719 0.23001593,0.11388916 0.24440455,0.13372271 0.25626565,0.15413935 0.26559927,0.17513916 0.27532118,0.19613931 0.28134896,0.21694485 0.2836826,0.23755583 0.28640451,0.25777815 0.28309895,0.27605591 0.27376593,0.29238917 0.26559897,0.30716699 0.25509898,0.31902809 0.24226593,0.32797251 0.22943234,0.33652807 0.21582124,0.34216696 0.20143259,0.34488917 0.18704349,0.3476114 0.17226572,0.34702806 0.15709926,0.34313917 0.14232131,0.3388614 0.12890465,0.33127808 0.11684926,0.32038917 0.10557134,0.3102781 0.09779357,0.29938922 0.09351592,0.2877225 0.08923802,0.27605591 0.08729358,0.26400036 0.08768259,0.25155583 0.08846025,0.2391115 0.09079358,0.22666706 0.09468259,0.2142225 0.09896024,0.20138931 0.10343245,0.18913932 0.10809926,0.1774725 0.11315467,0.16580601 0.11782133,0.15491713 0.12209926,0.14480583 0.12637688,0.13430604 0.12929354,0.12497271 0.13084926,0.11680582"
       style="font-size:0.58333337px;fill:#000000"
       id="path2995" />
  </g>
</svg>

<svg xmlns="http://www.w3.org/2000/svg" width="250" height="250" viewBox="0 0 0.34722222 0.34722222"><text x="-.032" y=".346" font-family="Energy Infrastructure" word-spacing="0" line-height="125%" letter-spacing="0" font-size=".056"><tspan x="-.032" y=".346" font-size=".59"/></text><g fill-rule="evenodd"><path d="m.131.117c.004-.024.006-.044.006-.058 0-.014-.0001-.025-.002-.033-.002-.008-.003-.013-.005-.015-.0001-.002-.0001-.003.0001-.003.003 0 .001.005.021.015.011.009.023.022.037.038.014.016.027.033.041.054.014.02.026.04.036.061.001.021.016.042.018.062.003.02-.0001.039-.001.055-.008.015-.019.027-.032.036-.013.009-.026.014-.041.017-.014.003-.029.002-.044-.002-.015-.004-.028-.012-.04-.023-.011-.001-.019-.021-.023-.033-.004-.012-.006-.024-.006-.036.0001-.012.003-.025.007-.037.004-.013.009-.025.013-.037.005-.012.001-.023.014-.033.004-.001.007-.02.009-.028"/></g></svg>
